X:1
T:Perche m'inviti
T:Giovanni Animuccia
T:Source : Secondo libro delle Laude spirituali a tre et a quattro voci---Roma---A.Gardano---1583. Editor : André Vierendeels (26/11/17). Notes : Original clefs : C1, C2, C4 Editorial accidentals above the staff Music compiled by Francisco Soto de Langa
T:Perche m'inviti
T:©
T:©
C:Giovanni Animuccia
Z:©
%%score [ 1 2 3 ]
L:1/8
Q:1/4=120
M:4/4
K:C
V:1 treble nm="Soprano" snm="S"
V:2 treble nm="Alto" snm="A"
V:3 treble-8 nm="Tenor" snm="T"
V:1
"^1)" z2 A2 A2 A2 | A3 B c4- | c2 A2 A2 A2 | G4 F4 | A2 AA A2 A2 | A6 A2 | F2 F2 E4 | D8 :: G8 | %9
w: Per- che m'in-|vi- ti pur|_ mon- do fal-|la- ce,|te- co ne pac' ha-|ver ne|trie- ga vo-|glio,|cru-|
w: Ahi fal- so|lu- sin- ghier|_ che mol- to|fa- le,|con po- co me- le'as-|tu- ta-|men- te co-|pri,|non|
 E4 F2 D2- | D2 D2 E3 F | G2 G2 F4 | E4 z2 A2 | B2 B2 G4 | A2 G4 A2 | G2 F2 E4 | E2 F4 F2 | %17
w: del ti- ra-|* no ren- dim'|il mio co-|re, mon-|do bu- giar-|do, mond' in-|gan- na- to-|re, mond' in-|
w: vo piu tue|_ lu- sin- ghe|tra- di- to-|re, mon-|do bu- giar-|do, mond' in-|gan- na- to-|re, mond' in-|
 D2 D2 E4 | D8 :| %19
w: gan- na- to-|re.|
w: gan- na- to-|re.|
V:2
"^2)""^1)" z2 F2 F2 E2 | F2 F2 E4- | E2 F2 F2 F2 | E4 F4 | F2 FF F2 F2 | F6 F2 |"^#" D2 D2 C4 | %7
w: Per- che m'in-|vi- ti pur|_ mon- do fal-|la- ce,|te- co ne pac' ha-|ver ne|trie- ga vo-|
w: Rot- ta'è la|re- te dei|_ sot- til' in-|gan- ni,|o- ve molt' an- ni|mi te-|ne- st'in- vol-|
 D8 :: E8 | C4 D2 B,2- | B,2 A,2 C3 D | E2 E2 D4 | C4 z2 F2 | G2 G2 E4 | F2 E4 F2 |"^#" E2 D2 C4 | %16
w: glio,|cru-|del ti- ta-|* no ren- dim'|il mio co-|re, mon-|do bu- giar-|don mond' in-|gan- na- to-|
w: ta,|hor|pian- go, se|_ ben tar- d'il|lun- go'er- ro-|re, mon-|do bu- giar-|do, mond' in-|gan- na- to-|
"^#" C2 D4 D2 |"^#" B,2 D4 C2 | D8 :| %19
w: re, mond' in|gan- na- to-|re.|
w: re, mond' in-|gan- na- to-|re.|
V:3
"^3)""^1)""^4)" z2 d2 d2 ^c2 | d2 D2 A4- | A2 F2 F2 F2 | c4 F4 | D2 DD D2 D2 | D6 D2 | D2 D2 A4 | %7
w: Per- che m'in-|vi- ti pur|_ mon- do fal-|la- ce,|tec- co ne pac' ha-|ver ne|trie- ga vo-|
w: In va- no'hor|mi mi- nac-|* ci'et hor m'a-|de- schi,|piu non m'in- ve- schi,|nel te-|na- ce vi-|
 D8 :: E8 | A4 D2 G2- | G2 D2 A3 d | c2 c2 d4 | A4 z2 d2 | G2 G2 c4 | F2 c4 F2 | c2 d2 A4 | %16
w: glio,|cru-|del ti- ta-|* no ren- dim'|il mio co-|re, mon-|do bu- giar-|do, mond' in-|gan- na- to-|
w: schio,|sciol-|to son' io'è|_ de tuo- i|lac- ci fo-|re, mon-|do gu- giar-|do, mond' in-|gan- na- to-|
 A2 D4 D2 | G2 _B2 A4 | D8 :| %19
w: re, mond' in-|gan- na- to-|re.|
w: re, mond' in-|gan- na- to-|re.|

